!!!COM: Anon.
!!!LAR: Arban, Jean-Baptiste
!!!OTL: Blue Bells of Scotland
!!!OPR: The Art of Phrasing: 150 Classic and Popular Melodies
!!!ONM: No. 009
!!!OMD: Allegro Moderato
**kern	**dynam
*ITromp	*
*ITrd1c2	*
*clefG2	*
*E-:	*
*k[b-e-a-]	*
*M4/4	*
*met(c)	*
=1	=1
(2ee-	f
4dd)	.
4cc	.
=2	=2
(2b-	.
4cc)	.
(8ddL	.
8ee-)J	.
=3	=3
4g	.
(4g	.
4a-	.
4f)	.
=4	=4
4e-	.
4r	.
4r	.
4b-	.
=5	=5
(2ee-	f
4dd)	.
4cc	.
=6	=6
(2b-	.
4cc)	.
(8ddL	.
8ee-)J	.
=7	=7
4g	.
(4g	.
4a-	.
4f)	.
=8	=8
4e-	.
4r	.
4r	.
=||:	=||:
4b-	.
=9	=9
(4.g	.
8e-)	.
4g	.
4b-	.
=10	=10
(2ee-	.
4cc),	.
4ee-	.
=11	=11
(4dd	.
4b-)	.
(4cc	.
4a)	.
=12	=12
2.b-,	.
(8ccL	.
8dd)J	.
=13	=13
(2ee-	f
4dd)	.
4cc	.
=14	=14
(2b-	.
4cc)	.
(8ddL	.
8ee-)J	.
=15	=15
4g	.
(4g	.
4a-	.
4f)	.
=16	=16
2e-	.
4r	.
==:|!	==:|!
*-	*-
!!!OCL: Edwin Franko Goldman
!!!OCL: Walter M. Smith
!!!OCL: Claude Gordon
!!!YOR: Arban's Complete Conservatory Method for Trumpet/Cornet
!!!PPR: Carl Fischer
!!!PPP: New York, NY
!!!PDT: 1893///
!!!reprint: Carl Fischer, 1982: ISBN 0-8258-0385-3
!!!EFL: 9/150
!!!ENC: Hubert Léveillé Gauvin
!!!END: 2018/05/26/